Obsidian-SemiLight/actions/16s/edit-bomb.svg

<svg viewBox="0 0 16 16" xmlns="http://www.w3.org/2000/svg"><path d="m14 2c-.989.203-1.906219.7821875-2.449219 1.6171875-.188-.084-.331781-.1171875-.550781-.1171875-.156 0-.304312.0302187-.445312.0742188-.8530005-.5200001-1.852688-.8242188-2.929688-.8242188-3.116 0-5.625 2.509-5.625 5.625s2.509 5.625 5.625 5.625 5.625-2.509 5.625-5.625c0-1.076-.303219-2.0766875-.824219-2.9296875.044-.142.074219-.2893125.074219-.4453125 0-.336-.009312-.4717031-.195312-.7207031.401999-.654.937312-1.0822969 1.695312-1.2792969z" fill="#4d4d4d"/></svg>

<svg xmlns="http://www.w3.org/2000/svg" viewBox="0 0 16 16">
  <defs id="defs3051">
    <style type="text/css" id="current-color-scheme">
      .ColorScheme-Text {
        color:#4d4d4d;
      }
      </style>
  </defs>
 <path style="fill:currentColor;fill-opacity:1;stroke:none" 
     d="M 14 2 C 13.011 2.203 12.093781 2.7821875 11.550781 3.6171875 C 11.362781 3.5331875 11.219 3.5 11 3.5 C 10.844 3.5 10.695688 3.5302187 10.554688 3.5742188 C 9.7016875 3.0542187 8.702 2.75 7.625 2.75 C 4.509 2.75 2 5.259 2 8.375 C 2 11.491 4.509 14 7.625 14 C 10.741 14 13.25 11.491 13.25 8.375 C 13.25 7.299 12.946781 6.2983125 12.425781 5.4453125 C 12.469781 5.3033125 12.5 5.156 12.5 5 C 12.5 4.664 12.490688 4.5282969 12.304688 4.2792969 C 12.706687 3.6252969 13.242 3.197 14 3 L 14 2 z "
     class="ColorScheme-Text"
     />
</svg>
